svg/phone.svg

<svg width="19" height="18" viewBox="0 0 19 18" fill="none" xmlns="http://www.w3.org/2000/svg">
<path d="M17.0001 12.6899V14.9399C17.0009 15.1488 16.9581 15.3556 16.8745 15.547C16.7908 15.7383 16.668 15.9101 16.5141 16.0513C16.3602 16.1926 16.1785 16.3001 15.9806 16.367C15.7828 16.4339 15.5731 16.4587 15.3651 16.4399C13.0572 16.1892 10.8403 15.4006 8.89257 14.1374C7.08044 12.9859 5.54407 11.4496 4.39257 9.63745C3.12506 7.68085 2.33625 5.4532 2.09007 3.13495C2.07133 2.92755 2.09598 2.71852 2.16245 2.52117C2.22892 2.32382 2.33575 2.14247 2.47615 1.98867C2.61654 1.83487 2.78743 1.71198 2.97792 1.62784C3.1684 1.5437 3.37433 1.50015 3.58257 1.49995H5.83257C6.19655 1.49637 6.54942 1.62526 6.82539 1.8626C7.10137 2.09994 7.28163 2.42954 7.33257 2.78995C7.42754 3.51 7.60366 4.217 7.85757 4.89745C7.95848 5.16589 7.98032 5.45764 7.9205 5.73811C7.86069 6.01858 7.72172 6.27603 7.52007 6.47995L6.56757 7.43245C7.63524 9.31011 9.18991 10.8648 11.0676 11.9324L12.0201 10.9799C12.224 10.7783 12.4814 10.6393 12.7619 10.5795C13.0424 10.5197 13.3341 10.5415 13.6026 10.6424C14.283 10.8964 14.99 11.0725 15.7101 11.1674C16.0744 11.2188 16.4071 11.4024 16.645 11.6831C16.8828 11.9638 17.0092 12.3221 17.0001 12.6899Z" stroke="#2962FF" stroke-width="1.2" stroke-linecap="round" stroke-linejoin="round"/>
</svg>

<?xml version="1.0" encoding="utf-8"?>
<!-- Generator: Adobe Illustrator 26.0.1, SVG Export Plug-In . SVG Version: 6.00 Build 0)  -->
<svg version="1.1" id="Layer_1" xmlns="http://www.w3.org/2000/svg" xmlns:xlink="http://www.w3.org/1999/xlink" x="0px" y="0px"
	 viewBox="0 0 19 18" style="enable-background:new 0 0 19 18;" xml:space="preserve">
<style type="text/css">
	.st0{fill:none;stroke:#00B96B;stroke-width:1.2;stroke-linecap:round;stroke-linejoin:round;}
</style>
<path class="st0" d="M17,12.7v2.2c0,0.2,0,0.4-0.1,0.6c-0.1,0.2-0.2,0.4-0.4,0.5c-0.2,0.1-0.3,0.2-0.5,0.3c-0.2,0.1-0.4,0.1-0.6,0.1
	c-2.3-0.3-4.5-1-6.5-2.3C7.1,13,5.5,11.4,4.4,9.6c-1.3-2-2.1-4.2-2.3-6.5c0-0.2,0-0.4,0.1-0.6C2.2,2.3,2.3,2.1,2.5,2
	C2.6,1.8,2.8,1.7,3,1.6c0.2-0.1,0.4-0.1,0.6-0.1h2.2c0.4,0,0.7,0.1,1,0.4c0.3,0.2,0.5,0.6,0.5,0.9c0.1,0.7,0.3,1.4,0.5,2.1
	C8,5.2,8,5.5,7.9,5.7C7.9,6,7.7,6.3,7.5,6.5l-1,1c1.1,1.9,2.6,3.4,4.5,4.5l1-1c0.2-0.2,0.5-0.3,0.7-0.4s0.6,0,0.8,0.1
	c0.7,0.3,1.4,0.4,2.1,0.5c0.4,0.1,0.7,0.2,0.9,0.5C16.9,12,17,12.3,17,12.7z"/>
</svg>
